X: 1
T:Schottische d'Arce
M:4/4
L:1/8
C:Dave Praties
R:Schottische
Z:Steve Mansfield
K:Cm
gf|: e2c2 cdec |d2c2 c4 | e3f g3a | gagf g2gf | e2c2 cdec |
d2c2 c4 | cdec B2GB |1 c6 gf :|2 c4-c4 |: g2c2 g2c2 | gf^ed c2de |
f2B2 f2B2 | f^edc B4 | g2c2 g2c2 | gf^ed c2de | f2d2 B2d2 | c4-c4 :|
